src/assets/outline/DirectInbox.svg

<svg width="24" height="24" viewBox="0 0 24 24"  xmlns="http://www.w3.org/2000/svg">
<path d="M12 9.75C11.9 9.75 11.81 9.73 11.71 9.69C11.43 9.58 11.25 9.3 11.25 9V2C11.25 1.59 11.59 1.25 12 1.25C12.41 1.25 12.75 1.59 12.75 2V7.19L13.47 6.47C13.76 6.18 14.24 6.18 14.53 6.47C14.82 6.76 14.82 7.24 14.53 7.53L12.53 9.53C12.39 9.67 12.2 9.75 12 9.75Z" />
<path d="M11.9999 9.74994C11.8099 9.74994 11.6199 9.67994 11.4699 9.52994L9.46994 7.52994C9.17994 7.23994 9.17994 6.75994 9.46994 6.46994C9.75994 6.17994 10.2399 6.17994 10.5299 6.46994L12.5299 8.46994C12.8199 8.75994 12.8199 9.23994 12.5299 9.52994C12.3799 9.67994 12.1899 9.74994 11.9999 9.74994Z" />
<path d="M13.76 17.75H10.23C9.17998 17.75 8.23998 17.17 7.76998 16.23L6.59998 13.89C6.55998 13.8 6.46998 13.75 6.37998 13.75H1.97998C1.56998 13.75 1.22998 13.41 1.22998 13C1.22998 12.59 1.56998 12.25 1.97998 12.25H6.38998C7.05998 12.25 7.65998 12.62 7.95998 13.22L9.12998 15.56C9.33998 15.99 9.76998 16.25 10.25 16.25H13.78C14.26 16.25 14.69 15.99 14.9 15.56L16.07 13.22C16.37 12.62 16.97 12.25 17.64 12.25H22C22.41 12.25 22.75 12.59 22.75 13C22.75 13.41 22.41 13.75 22 13.75H17.64C17.54 13.75 17.46 13.8 17.42 13.89L16.25 16.23C15.75 17.17 14.81 17.75 13.76 17.75Z" />
<path d="M15 22.7499H9C3.57 22.7499 1.25 20.4299 1.25 14.9999V10.9999C1.25 6.30993 2.99 3.95993 6.89 3.38993C7.31 3.32993 7.68 3.60993 7.74 4.01993C7.8 4.42993 7.52 4.80993 7.11 4.86993C3.97 5.32993 2.75 7.04993 2.75 10.9999V14.9999C2.75 19.6099 4.39 21.2499 9 21.2499H15C19.61 21.2499 21.25 19.6099 21.25 14.9999V10.9999C21.25 7.04993 20.03 5.32993 16.89 4.86993C16.48 4.80993 16.2 4.42993 16.26 4.01993C16.32 3.60993 16.7 3.32993 17.11 3.38993C21.01 3.95993 22.75 6.30993 22.75 10.9999V14.9999C22.75 20.4299 20.43 22.7499 15 22.7499Z" />
</svg>

<?xml version="1.0" encoding="UTF-8"?>
<svg width="24" height="24" viewBox="0 0 24 24" xmlns="http://www.w3.org/2000/svg">
 <path d="m12 9.75c-0.1 0-0.19-0.02-0.29-0.06-0.28-0.11-0.46-0.39-0.46-0.69v-7c0-0.41 0.34-0.75 0.75-0.75s0.75 0.34 0.75 0.75v5.19l0.72-0.72c0.29-0.29 0.77-0.29 1.06 0s0.29 0.77 0 1.06l-2 2c-0.14 0.14-0.33 0.22-0.53 0.22z"/>
 <path d="m12 9.7499c-0.19 0-0.38-0.07-0.53-0.22l-2-2c-0.29-0.29-0.29-0.77 0-1.06s0.76996-0.29 1.06 0l2 2c0.29 0.29 0.29 0.77 0 1.06-0.15 0.15-0.34 0.22-0.53 0.22z"/>
 <path d="m13.76 17.75h-3.53c-1.05 0-1.99-0.58-2.46-1.52l-1.17-2.34c-0.04-0.09-0.13-0.14-0.22-0.14h-4.4c-0.41 0-0.75-0.34-0.75-0.75s0.34-0.75 0.75-0.75h4.41c0.67 0 1.27 0.37 1.57 0.97l1.17 2.34c0.21 0.43 0.64 0.69 1.12 0.69h3.53c0.48 0 0.91-0.26 1.12-0.69l1.17-2.34c0.3-0.6 0.9-0.97 1.57-0.97h4.36c0.41 0 0.75 0.34 0.75 0.75s-0.34 0.75-0.75 0.75h-4.36c-0.1 0-0.18 0.05-0.22 0.14l-1.17 2.34c-0.5 0.94-1.44 1.52-2.49 1.52z"/>
 <path d="m15 22.75h-6c-5.43 0-7.75-2.32-7.75-7.75v-4c0-4.69 1.74-7.04 5.64-7.61 0.42-0.06 0.79 0.22 0.85 0.63s-0.22 0.79-0.63 0.85c-3.14 0.46-4.36 2.18-4.36 6.13v4c0 4.61 1.64 6.25 6.25 6.25h6c4.61 0 6.25-1.64 6.25-6.25v-4c0-3.95-1.22-5.67-4.36-6.13-0.41-0.06-0.69-0.44-0.63-0.85s0.44-0.69 0.85-0.63c3.9 0.57 5.64 2.92 5.64 7.61v4c0 5.43-2.32 7.75-7.75 7.75z"/>
</svg>
